X:1
T:Fredmans Epistel No. 9
T:Fredmans Epistel No. 9
T:Til gumman på Thermopolium Boreale och hennes jungfrur
T:Carl Michael Bellman arr. F. A. Reissiger 
C:Carl Michael Bellman arr. F. A. Reissiger
%%score [ 1 2 3 4 ]
L:1/8
Q:1/4=110
M:3/4
K:A
V:1 treble-8 nm="Tenor 1" snm="T1."
V:2 treble-8 nm="Tenor 2"
V:3 bass nm="B1"
V:4 bass nm="B2"
V:1
!mf!"^Tempo di menuetto" A2 A A A A | A2 A B A B | c2 c c c c | c2 c d c d | e2!<(! c d e!<)! f | %5
w: 1.Kä- ras- te brö- der,|syst- rar och vän- ner,|si, fa- der Berg, han|skru- var och spän- ner|sträng- ar- na på fi-|
w: Ö- gat är bor- ta,|nä- san åar kluf- ven:|si hur han står och|spot- tar på skruf- ven,|öl- kan- nan står på|
w: 4.Hej, mi- na flic- kor,|lyf- ta på kjo- len,|dan- sa och skrat- ta...|hör bas- fi- o- len!|Ge fa- der Berg kon-|
w: Hör, fa- der Berg, såg|du, hvad hon he- ter,|hon där vid skän- ken|vind- ögd och fe- ter?|"Gum- man på Ther- mo-|
 e2 a2 e2 | e2 f!>(! e d c!>)! | (c4 B2) :|"^V. cello"!p! B2 BB BB |!f! B2 B c B c | %10
w: o- len, och|strå- ken han tar i|hand. *||gri- nar mot so- len,|
w: sto- len. Nu|knäp- per han li- te|grand, *||Trum- pen och blin- der!|
w: fon- ium och|hog- iands med grö- na|blan! *|||
w: phol- ium!" Hon|är det, ja, ta mig|fan! *|||
"^V. cello"!mf! d2 dd dd |!f! d2 d e d e |"^V. cello"!f! (f2 e2 d2) | .c.d (e2 d2) | %14
w: |pi- nar fi- o- len,|||
w: |Gum- pen är trin- der...|||
w: ||||
w: ||||
!f! c2 d c B A | G2 F G E2 |!mf! e2 e e e e | e2 d c d2 | d2 d d d d | d2 c B c2 |!f! c e A c B d | %21
w: han sig för- vil- lar,|dril- lar i- bland.|Kä- ras- te brö- der,|dan- sa på tå,|hand- skar i hand och|hat- tar- na på!|Si på jung- fru Lo- na,|
w: Hals- fräs, min gum- ma!|Brum- ma, dul- cian!|Kä- ras- te brö- der,|här är be- hag:|här är mu- sik och|flick- kor hvar dag,|här är Bac- chus bu- den,|
w: |||||||
w: |||||||
 c e A c B d | c e c A B G | A4 z2 |] %24
w: rö- da band i sko- na,|ny- a strum- por, him- mels-|blå!|
w: här är kär- leks- gu- den,|här är all- ting, här är|jag.|
w: |||
w: |||
V:2
!mf! C2 C C D C | E2 C E C E | A2 A A A A | A2 A B A B | c2!<(! A B c!<)! d | (cB) (Ac) (BA) | %6
w: 1.Kä- ras- te brö- der,|syst- rar och vän- ner,|si, fa- der Berg, han|skru- var och spän- ner|sträng- ar- na på fi-|o- * len, * och *|
w: Ö- gat är bor- ta,|nä- san åar kluf- ven:|si hur han står och|spot- tar på skruf- ven,|öl- kan- nan står på|sto- * len. * Nu *|
w: 4.Hej, mi- na flic- kor,|lyf- ta på kjo- len,|dan- sa och skrat- ta...|hör bas- fi- o- len!|Ge fa- der Berg kon-|fon- * ium * och *|
w: Hör, fa- der Berg, såg|du, hvad hon he- ter,|hon där vid skän- ken|vind- ögd och fe- ter?|"Gum- man på Ther- mo-|phol- * ium!" * Hon *|
 (GA) A!>(! A B A!>)! | (A4 G2) :|"^V. cello"!p! G2 GG GG |!f! G2 G A G A | %10
w: strå- * ken han tar i|hand. *||gri- nar mot so- len,|
w: knäp- * per han li- te|grand, *||Trum- pen och blin- der!|
w: hog- * iands med grö- na|blan! *|||
w: är * det, ja, ta mig|fan! *|||
"^V. cello"!mf! B2 BB BB |!f! B2 B c B c |"^V. cello"!f! (d2 c2 B2) | .A.B (c2 B2) | %14
w: |pi- nar fi- o- len,|||
w: |Gum- pen är trin- der...|||
w: ||||
w: ||||
!f! (cB) A A B A | G2 F ^D E2 |!mf! c2 c c c c | c2 B ^A B2 | B2 B B B B | B2 A G A2 | %20
w: han * sig för- vil- lar,|dril- lar i- bland.|Kä- ras- te brö- der,|dan- sa på tå,|hand- skar i hand och|hat- tar- na på!|
w: Hals- * fräs, min gum- ma!|Brum- ma, dul- cian!|Kä- ras- te brö- der,|här är be- hag:|här är mu- sik och|flick- kor hvar dag,|
w: ||||||
w: ||||||
!f! c B A A A G | c B A A A G | A A A A G G | A4 z2 |] %24
w: Si på jung- fru Lo- na,|rö- da band i sko- na,|ny- a strum- por, him- mels-|blå!|
w: här är Bac- chus bu- den,|här är kär- leks- gu- den,|här är all- ting, här är|jag.|
w: ||||
w: ||||
V:3
!mf! E,2 E, ^E, F, =E, | C,2 z2 z2 | E,2 E, ^E, F, =E, | A, E,2 E, A, E, | %4
w: 1.Kä- ras- te brö- der,|syst|si, fa- der Berg, han|skru- var och spän- ner|
w: Ö- gat är bor- ta,|nä|si hur han står och|spot- tar på skruf- ven,|
w: 4.Hej, mi- na flic- kor,|lyf|dan- sa och skrat- ta...|hör bas- fi- o- len!|
w: Hör, fa- der Berg, såg|du,|hon där vid skän- ken|vind- ögd och fe- ter?|
 A,2!<(! A, A, A,!<)! A, | (CB,) A,2 (G,A,) | E,2 D,!>(! E, F, F,!>)! | E,6 :| %8
w: sträng- ar- na på fi-|o- * len, och *|strå- ken han tar i|hand.|
w: öl- kan- nan står på|sto- * len. Nu *|knäp- per han li- te|grand,|
w: Ge fa- der Berg kon-|fon- * ium och *|hog- iands med grö- na|blan!|
w: "Gum- man på Ther- mo-|phol- * ium!" Hon *|är det, ja, ta mig|fan!|
"^V. cello"!p! (E,^D, .E,).G, .B,.G, |!f! E,2 E, E, E, E, |"^V. cello"!mf! (G,B, .D).C .B,.A, | %11
w: |gri- nar mot so- len,||
w: |Trum- pen och blin- der!||
w: |||
w: |||
!f! G,2 E, E, E, E, |"^V. cello"!f! z (G, .A,).E, .G,.E, | A,3 (^D,/E,/ .G,)E, | %14
w: pi- nar fi- o- len,|||
w: Gum- pen är trin- der...|||
w: |||
w: |||
!f! (A,G,) F, F, F, F, | =E,2 ^D, B,, E,2 |!mf! A,2 A, A, C B, | ^A,2 F, F, F,2 | %18
w: han * sig för- vil- lar,|dril- lar i- bland.|Kä- ras- te brö- der,|dan- sa på tå,|
w: Hals- * fräs, min gum- ma!|Brum- ma, dul- cian!|Kä- ras- te brö- der,|här är be- hag:|
w: ||||
w: ||||
 F,2 F, F, B, =A, | G,2 E, E, E,2 |!f! A, G, F, E, F, E, | A, G, F, E, F, E, | E, E, F,2 E,2 | %23
w: hand- skar i hand och|hat- tar- na på!|Si på jung- fru Lo- na,|rö- da band i sko- na,|ny- a strum- por,|
w: här är mu- sik och|flick- kor hvar dag,|här är Bac- chus bu- den,|här är kär- leks- gu- den,|här är all- ting,|
w: |||||
w: |||||
 E, C A,2 z2 |] %24
w: him- mels- blå!|
w: här är jag.|
w: |
w: |
V:4
!mf! (A,,6 | (A,,)C,) E, E, E, E, | E,2 z2 z2 | A,, C, E, E, E, E, | A,2!<(! A, A, A,!<)! A, | %5
w: 1.Kä-|* * ras- te brö- der,|si,|fa- der Berg han spän- ner|sträng- ar- na på fi-|
w: Ö-|* * gat är bor- ta,|si|hur han står och spot- tar,|öl- kan- nan står på|
w: 4.Hej,|* * mi- na flic- kor,|dan-|hör * bas- fi- o- len!|Ge fa- der Berg kon-|
w: Hör,|* * fa- der Berg, såg|hon|vind- * ögd och fe- ter?|"Gum- man på Ther- mo-|
 (A,G,) (F,E,) (D,C,) | (B,,C,) D,!>(! C, D, ^D,!>)! | E,6 :| %8
w: o- * len, * och *|strå- * ken han tar i|hand.|
w: sto- * len. * Nu *|knäp- * per han li- te|grand,|
w: fon- * ium * och *|hog- * iands med grö- na|blan!|
w: phol- * ium!" * Hon *|är * det, ja, ta mig|fan!|
"^V. cello"!p! (E,^D, .E,).B,, .G,,.B,, |!f! E,2 E, E, E, E, | %10
w: |gri- nar mot so- len,|
w: |Trum- pen och blin- der!|
w: ||
w: ||
"^V. cello"!mf! (E,G, .B,).A, .G,.F, |!f! E,2 E, E, E, E, |"^V. cello"!f! z (G, .A,).E, .G,.E, | %13
w: |pi- nar fi- o- len,||
w: |Gum- pen är trin- der...||
w: |||
w: |||
 A,3 (^D,/E,/ .G,)E, |!f! (A,^E,) F, F, D, ^D, | (=E,B,,) B,, B,, E,2 |!mf! A,,2 C, E, A, =G, | %17
w: |han * sig för- vil- lar,|dril- * lar i- bland.|Kä- ras- te brö- der,|
w: |Hals- * fräs, min gum- ma!|Brum- * ma, dul- cian!|Kä- ras- te brö- der,|
w: ||||
w: ||||
 F,2 F, F, B,,2 | B,,2 D, B,, G, F, | E,2 E, E, A,,2 |!f! A, G, F, E, D, E, | A, G, F, E, D, E, | %22
w: dan- sa på tå,|hand- skar i hand och|hat- tar- na på!|Si på jung- fru Lo- na,|rö- da band i sko- na,|
w: här är be- hag:|här är mu- sik och|flick- kor hvar dag,|här är Bac- chus bu- den,|här är kär- leks- gu- den,|
w: |||||
w: |||||
 A,, C, F,2 (E,D,) | C, E, A,,2 z2 |] %24
w: ny- a strum- por, *|him- mels- blå!|
w: här är all- ting, *|här är jag.|
w: ||
w: ||

